symbols/be/PVA-{100}.svg

<?xml version="1.0" encoding="UTF-8" standalone="no"?>
<!-- Initially created with Inkscape, optimized by hand -->

<svg
   version="1.1"
   width="20"
   height="17.320995"
   id="svg1"
   xmlns="http://www.w3.org/2000/svg"
   xmlns:svg="http://www.w3.org/2000/svg">
  <defs
     id="defs1" />
  <path
     id="Fond"
     d="M 20,-1.2580566e-6 H 3.1098633e-6 L 10.000003,17.320999 Z"
     fill="#edd827"
     style="stroke-width:0.1" />
  <path
     d="m 8.8460701,9.2268437 v -6.389353 c 0,-0.106667 -0.032,-0.192001 -0.106667,-0.266668 -0.064,-0.07467 -0.362667,-0.149334 -0.501335,-0.01067 l -1.429337,1.429337 c -0.149334,0.149334 -0.096,0.426668 0.01067,0.533335 0.096,0.106667 0.352001,0.128001 0.490669,-0.01067 l 0.821335,-0.832003 v 5.557351 c 0,0.192001 0.170668,0.352001 0.362668,0.352001 0.192001,0 0.352001,-0.16 0.352001,-0.362668 z m 4.4373379,-1.418671 v -3.552011 c 0,-0.981336 -0.789336,-1.781339 -1.770673,-1.781339 -0.981336,0 -1.7813389,0.800003 -1.7813389,1.781339 v 3.552011 c 0,0.981337 0.8000029,1.781339 1.7813389,1.781339 0.981337,0 1.770673,-0.800002 1.770673,-1.781339 z m -0.704003,0 c 0,0.597335 -0.480001,1.06667 -1.06667,1.06667 -0.597335,0 -1.06667,-0.469335 -1.06667,-1.06667 v -3.552011 c 0,-0.586669 0.469335,-1.06667 1.06667,-1.06667 0.586669,0 1.06667,0.480001 1.06667,1.06667 z"
     id="text1"
     style="font-size:10.6667px;font-family:Isonorm;-inkscape-font-specification:'Isonorm, Normal';fill-rule:evenodd;stroke-width:0.08"
     aria-label="10" />
</svg>

<?xml version="1.0" encoding="UTF-8"?>
<svg xmlns="http://www.w3.org/2000/svg" xmlns:xlink="http://www.w3.org/1999/xlink" width="20" height="17.320995" viewBox="0 0 20 17.320995">
<path fill-rule="nonzero" fill="rgb(92.941176%, 84.705882%, 15.294118%)" fill-opacity="1" d="M 20 0 L 0 0 L 10 17.320312 Z M 20 0 "/>
<path fill-rule="evenodd" fill="rgb(0%, 0%, 0%)" fill-opacity="1" d="M 8.847656 9.226562 L 8.847656 2.835938 C 8.847656 2.730469 8.8125 2.644531 8.738281 2.570312 C 8.675781 2.496094 8.375 2.421875 8.238281 2.558594 L 6.808594 3.988281 C 6.660156 4.140625 6.710938 4.417969 6.820312 4.523438 C 6.914062 4.628906 7.171875 4.652344 7.308594 4.511719 L 8.132812 3.679688 L 8.132812 9.238281 C 8.132812 9.429688 8.300781 9.589844 8.492188 9.589844 C 8.6875 9.589844 8.847656 9.429688 8.847656 9.226562 Z M 13.285156 7.808594 L 13.285156 4.257812 C 13.285156 3.273438 12.492188 2.476562 11.511719 2.476562 C 10.53125 2.476562 9.730469 3.273438 9.730469 4.257812 L 9.730469 7.808594 C 9.730469 8.789062 10.53125 9.589844 11.511719 9.589844 C 12.492188 9.589844 13.285156 8.789062 13.285156 7.808594 Z M 12.578125 7.808594 C 12.578125 8.40625 12.097656 8.875 11.511719 8.875 C 10.914062 8.875 10.445312 8.40625 10.445312 7.808594 L 10.445312 4.257812 C 10.445312 3.667969 10.914062 3.191406 11.511719 3.191406 C 12.097656 3.191406 12.578125 3.667969 12.578125 4.257812 Z M 12.578125 7.808594 "/>
</svg>
